Numix-Light-GalliumOS/22/status/dropboxstatus-busy2.svg

<?xml version="1.0" encoding="UTF-8" standalone="no"?>
<svg
   xmlns:dc="http://purl.org/dc/elements/1.1/"
   xmlns:cc="http://creativecommons.org/ns#"
   xmlns:rdf="http://www.w3.org/1999/02/22-rdf-syntax-ns#"
   xmlns:svg="http://www.w3.org/2000/svg"
   xmlns="http://www.w3.org/2000/svg"
   xmlns:sodipodi="http://sodipodi.sourceforge.net/DTD/sodipodi-0.dtd"
   xmlns:inkscape="http://www.inkscape.org/namespaces/inkscape"
   width="22"
   viewBox="0 0 22 22"
   height="22"
   id="svg3212"
   version="1.1"
   inkscape:version="0.91 r"
   sodipodi:docname="dropboxstatus-busy2.svg">
  <metadata
     id="metadata3224">
    <rdf:RDF>
      <cc:Work
         rdf:about="">
        <dc:format>image/svg+xml</dc:format>
        <dc:type
           rdf:resource="http://purl.org/dc/dcmitype/StillImage" />
      </cc:Work>
    </rdf:RDF>
  </metadata>
  <defs
     id="defs3222" />
  <sodipodi:namedview
     pagecolor="#ffffff"
     bordercolor="#666666"
     borderopacity="1"
     objecttolerance="10"
     gridtolerance="10"
     guidetolerance="10"
     inkscape:pageopacity="0"
     inkscape:pageshadow="2"
     inkscape:window-width="1280"
     inkscape:window-height="998"
     id="namedview3220"
     showgrid="false"
     inkscape:zoom="10.727273"
     inkscape:cx="11"
     inkscape:cy="11"
     inkscape:window-x="0"
     inkscape:window-y="0"
     inkscape:window-maximized="1"
     inkscape:current-layer="svg3212" />
  <path
     inkscape:connector-curvature="0"
     id="path3218"
     d="M 6.5,3.5 2,7 6.5,10 2,14 11,20 20,14 15.5,10 20,7 15.5,3.5 11,7 6.5,3.5 z m 4.5,5 c 1.761402,0 3.372172,1.0782475 4.0625,2.71875 L 16,10.875 l -0.78125,2.75 -2.53125,-1.46875 1,-0.375 C 13.215921,10.715141 12.156629,10 11,10 9.7857044,10 8.6998574,10.727655 8.25,11.875 L 6.875,11.34375 C 7.5492445,9.6228879 9.1791538,8.5 11,8.5 z m -4.25,3.8125 2.5625,1.53125 -1,0.40625 C 8.7905794,15.322952 9.8327873,16 11,16 c 1.209573,0 2.31467,-0.757774 2.75,-1.90625 L 15.125,14.625 C 14.471839,16.346965 12.814124,17.5 11,17.5 9.2260423,17.5 7.641272,16.428058 6.9375,14.78125 L 6,15.1875 6.75,12.3125 z"
     style="color:#000000;fill:#353535" />
</svg>

<svg xmlns="http://www.w3.org/2000/svg" viewBox="0 0 22 22">
 <path d="m 6.5 3.5 -4.5 3.5 4.5 3 -4.5 4 9 6 9 -6 -4.5 -4 4.5 -3 -4.5 -3.5 -4.5 3.5 -4.5 -3.5 z m 4.5 5 c 1.761 0 3.372 1.078 4.063 2.719 l 0.938 -0.344 l -0.781 2.75 -2.531 -1.469 1 -0.375 c -0.472 -1.066 -1.531 -1.781 -2.688 -1.781 -1.214 0 -2.3 0.728 -2.75 1.875 l -1.375 -0.531 c 0.674 -1.721 2.304 -2.844 4.125 -2.844 z m -4.25 3.813 2.563 1.531 -1 0.406 c 0.478 1.073 1.52 1.75 2.688 1.75 c 1.21 0 2.315 -0.758 2.75 -1.906 l 1.375 0.531 c -0.653 1.722 -2.311 2.875 -4.125 2.875 -1.774 0 -3.359 -1.072 -4.063 -2.719 l -0.938 0.406 0.75 -2.875 z" style="fill:#353535;color:#000"/>
</svg>
